**kern
*staff2
*tb8
=1-
*clefG2
*met(c)
*M4/4
8g\L
8ee\
8f\
8dd\J
8e/L
8cc/
8d/
8b/J
=2
8e/L
8cc/
8g/ 8b/
8f/J 8a/J
8e/L 8g/L
8c/
8f/ 8a/
8c/J
=3
4g/ 4cc/
.
4f/ 4b/
.
4f/ 4dd/
.
4e/ 4cc/
.
=4
!!linebreak:original
*^
4e/	2c\
.	.
4f#/	.
.	.
4g/	4B\
.	.
*v	*v
4r
.
=5
8A/L
8a/
8g/
8a/J
8f/L
8a/
8e/
8cc/J
=6
8d/L
8f/
8d/
8b/J
8c/L
8f/
8d/ 8a/
8f/J 8g/J
=7:|!
!!linebreak:original
=
2e/ 2g/
.
.
.
4d/
.
4c/
.
=8
4B/
.
4r
.
8d/L
8g/
8f/ 8b/
8cc/J
=9
[2f/ [2dd/
.
.
.
4f/] 4b/
.
8f/ 8cc/
8a/
=10
!!linebreak:original
*^
(2dd/]	[2f\ [2g\
.	.
.	.
.	.
4b/)	2f\] 2g\]
.	.
8a/L	.
8g/J	.
*v	*v
=11
8e/L 8g/L
8G/
8c/ 8e/
8G/J
8e/L 8g/L
8G/
8c/ 8e/
8G/J
=12
8g/L
8G/
8c/ 8e-/
8G/J
8g/L
8G/
8c/ 8e-/
8G/J
=13
*^
4ee-/	2g\
.	.
8dd/L	.
8cc/J	.
*v	*v
4g/ 4b/
.
4f/ 4g/
.
=14
!!linebreak:original
*^
2g/	2e-\
.	.
.	.
.	.
8a-/L 8cc/L	2c\
8a-/J 8cc/J	.
8g/J 8b-/J	.
8f/J 8a-/J	.
=15	=15
4f/ 4a-/	2c\
.	.
4e/ 4g/	.
.	.
2a-/ 2cc/	4c\
.	.
.	4f\
.	.
*v	*v
=16
4f/ 4a-/
.
4e/ 4g/
.
4e/ 4g/
.
4d/ 4g/
.
=17
!!linebreak:original
4e/ 4cc/
.
4e/ 4b/
.
4f/ 4a/
.
4g/
.
=18
4f/
.
4r
.
[2g/
.
.
.
=19
4g/]
.
2g/
.
.
.
4f/
.
=20
!!linebreak:original
2c/ 2e/
.
.
.
4c\
.
4B\
.
=21
1r
.
.
.
.
.
.
.
=22
1r
.
.
.
.
.
.
.
=23
!!linebreak:original
*k[b-e-a-]
*met(c)
*M4/4
8e-/L 8g/L
8B-/
8B-/
8e-/J 8g/J
8e-/L 8g/L
8B-/
8B-/
8e-/J 8g/J
=24
8e-/L 8a-/L
8c/
8c/
8e-/J 8a-/J
8f/L 8a-/L
8B-/
8B-/
8f/J 8a-/J
=25
8e-/L 8g/L
8B-/
8B-/
8e-/J 8g/J
8e-/L 8g/L
8c/
8c/
8e-/J 8g/J
=26
!!linebreak:original
1r
.
.
.
.
.
.
.
=27
8f/L 8a-/L
8B-/
8B-/
8f/J 8a-/J
8e-/L 8a-/L
8B-/
8B-/
8e-/J 8a-/J
=28
8d/L 8a-/L
8B-/
8B-/
8d/J 8a-/J
8d/L 8a-/L
8B-/
8B-/
8d/J 8a-/J
=29
!!linebreak:original
8e-/L 8g/L
8B-/
8B-/
8e-/J 8g/J
8e-/L 8g/L
8B-/
8B-/
8e-/J 8g/J
=30
8e-/L 8g/L
8c/
8c/
8e-/J 8g/J
8e-/L 8g/L
8c/
8c/
8e-/J 8g/J
=31
8en/L 8g/L
8B-/
8B-/
8e/J 8g/J
8c/L 8g/L
8An/
8A/
8c/J 8g/J
=32
!!linebreak:original
8d/L 8f#/L
8An/
8A/
8d/J 8f#/J
8d/L 8f#/L
8A/
8A/
8d/J 8f#/J
=33
8d/L 8g/L
8Bn/
8B/
8d/J 8g/J
8d/L 8g/L
8B/
8B/
8d/J 8g/J
=34
8e-/L 8g/L
8c/
8c/
8e-/J 8g/J
8e-/L 8g/L
8B-/
8B-/
8e-/J 8g/J
=35
!!linebreak:original
8e-/L 8a-/L
8c/
8c/
8e-/J 8a-/J
8en/L 8b-/L
8c/
8c/
8e/J 8b-/J
=36
8f/L 8a-/L
8c/
8c/
8f/J 8a-/J
8f/L 8a-/L
8B-/
8B-/
8f/J 8a-/J
=37
8f/L 8a-/L
8B-/
8B-/
8f/J 8a-/J
8f/L 8a-/L
8B-/
8B-/
8f/J 8a-/J
=38
!!linebreak:original
8e-/L 8g/L
8B-/
8B-/
8e-/J 8g/J
8e-/L 8g/L
8c/
8c/
8e-/J 8g/J
=39
8f/L 8a-/L
8c/
8c/
8f/J 8a-/J
8f/L 8a-/L
8B-/
8B-/
8f/J 8a-/J
=40
8e-/L 8g/L
8B-/
8B-/
8e-/J 8g/J
8e-/L 8a-/L
8B-/
8B-/
8e-/J 8a-/J
=41
8e-/L 8g/L
8B-/
8B-/
8e-/J 8g/J
8e-/L 8g/L
8B-/
8B-/
8e-/J 8g/J
=42
!!linebreak:original
8e-/L 8a-/L
8A-/
8A-/
8e-/J 8a-/J
8e-/L 8g-/L
8B-/
8B-/
8e-/J 8g-/J
=43
8e-/L 8g-/L
8c/
8c/
8e-/J 8f/J
8e-/L 8an/L
8c/
8c/
8e-/J 8f/J
=44
8d/L
8B-/
8d/ 8f/
8B-/J
8e-/L 8g/L
8B-/
8d/ 8a-/
8B-/J
=45
!!linebreak:original
4B-/ 4e-/ 4g/
.
4a-\ 4dd\
.
4g/ 4cc/
.
4f/ 4bn/
.
=46
4e-/ 4a-/
.
4d-/ 4g/
.
4c/ 4f/
.
4B-/ 4d-/
.
=47
2A-/ 2c/
.
.
.
2r
.
.
.
=48
4A-/ 4d/
.
4r
.
4r
.
4r
.
=49
!!linebreak:original
8e-/L 8g/L
8B-/
8B-/
8e-/J 8g/J
8e-/L 8g/L
8B-/
8B-/
8e-/J 8g/J
=50
8e-/L 8a-/L
8c/
8c/
8e-/J 8a-/J
8f/L 8a-/L
8B-/
8B-/
8f/J 8a-/J
=51
8e-/L 8g/L
8B-/
8B-/
8e-/J 8g/J
8e-/L 8g/L
8c/
8c/
8e-/J 8g/J
=52
!!linebreak:original
8e-/L 8a-/L
8c/
8c/
8e-/J 8a-/J
8e-/L 8a-/L
8c/
8c/
8e-/J 8a-/J
=53
8f/L 8a-/L
8B-/
8B-/
8f/J 8a-/J
8e-/L 8a-/L
8B-/
8B-/
8e-/J 8a-/J
=54
8d/L 8a-/L
8B-/
8B-/
8d/J 8a-/J
8d/L 8a-/L
8B-/
8B-/
8d/J 8a-/J
=55
!!linebreak:original
8e-/L 8g/L
8B-/
8B-/
8e-/J 8g/J
8e-/L 8g/L
8B-/
8B-/
8e-/J 8g/J
=56
8e-/L 8g/L
8c/
8c/
8e-/J 8g/J
8e-/L 8g/L
8c/
8c/
8e-/J 8g/J
=57
8en/L 8g/L
8B-/
8B-/
8e/J 8g/J
8c/L 8g/L
8An/
8A/
8c/J 8g/J
=58
!!linebreak:original
8d/L 8f#/L
8An/
8A/
8d/J 8f#/J
8d/L 8f#/L
8A/
8A/
8d/J 8f#/J
=59
8d/L 8g/L
8Bn/
8B/
8d/J 8g/J
8d/L 8g/L
8B/
8B/
8d/J 8g/J
=60
8e-/L 8g/L
8c/
8c/
8e-/J 8g/J
8e-/L 8g/L
8B-/
8B-/
8e-/J 8g/J
=61
!!linebreak:original
8e-/L 8a-/L
8c/
8c/
8e-/J 8a-/J
8en/L 8b-/L
8c/
8c/
8e/J 8b-/J
=62
8f/L 8a-/L
8c/
8c/
8f/J 8a-/J
8f/L 8a-/L
8B-/
8B-/
8f/J 8a-/J
=63
8f/L 8a-/L
8B-/
8B-/
8f/J 8a-/J
8f/L 8a-/L
8B-/
8B-/
8f/J 8a-/J
=64
!!linebreak:original
8e-/L 8g/L
8B-/
8B-/
8e-/J 8g/J
8e-/L 8g/L
8c/
8c/
8e-/J 8g/J
=65
8f/L 8a-/L
8c/
8c/
8f/J 8a-/J
8f/L 8a-/L
8B-/
8B-/
8f/J 8a-/J
=66
8e-/L 8g/L
8B-/
8B-/
8e-/J 8g/J
8e-/L 8a-/L
8B-/
8B-/
8e-/J 8a-/J
=67
8e-/L 8g/L
8B-/
8B-/
8e-/J 8g/J
8e-/L 8g/L
8B-/
8B-/
8e-/J 8g/J
=68
!!linebreak:original
8e-/L 8a-/L
8A-/
8A-/
8e-/J 8a-/J
8e-/L 8g-/L
8B-/
8B-/
8e-/J 8g-/J
=69
8e-/L 8g-/L
8c/
8c/
8e-/J 8f/J
8e-/L 8an/L
8c/
8c/
8e-/J 8f/J
=70
8d/L
8B-/
8d/ 8f/
8B-/J
8e-/L 8g/L
8B-/
8d/ 8a-/
8B-/J
=71
!!linebreak:original
4B-/ 4e-/ 4g/
.
4a-\ 4dd\
.
4g/ 4cc/
.
4f/ 4bn/
.
=72
4e-/ 4a-/
.
4d-/ 4g/
.
4c/ 4f/
.
4B-/ 4d-/
.
=73
2A-/ 2c/
.
.
.
2r
.
.
.
=74
4A-/ 4d/
.
4r
.
4r
.
4r
.
=75
4G/ 4e-/
.
4r
.
2r
.
.
.
==
*-
